X:29
T:Star above the Garter
Z: id:dc-slide-30
M:6/8
L:1/8
K:G Major
d2B BAG|A3 ABA|G2E c2B|BAG ABc|!
d2B BAG|A3 ABA|G2E c2E|DED D3:|!
d2e f2a|g2e d2B|G2B c2B|BAG ABc|!
d2e f2a|g2e d2B|G2B c2E|DED D3:|!

